!!!CDT:
!!!PTL: Il primo libro de madrigali a cinque voci 
!!!PPP: Venice
!!!PPR: Angelo Gardano
!!!PDT: 1604
!!!PUB-format:
!!!RISM: P 5480
!!!AGN: Madrigal
!!!SCT: Tsg01003a
!!!SCA: Tsg01003a
!!!original-voices: 5
!!!extant-voices: 5
!!!complete: Y
!!!final: F
!!!COM: Priuli, Giovanni
!!!OTL: Sai che là corre il mondo ove più versi
**kern	**text	**kern	**text	**kern	**text	**kern	**text	**kern	**text
*part5	*part5	*part4	*part4	*part3	*part3	*part2	*part2	*part1	*part1
*staff5	*staff5	*staff4	*staff4	*staff3	*staff3	*staff2	*staff2	*staff1	*staff1
*I"Basso	*	*I"Quinto	*	*I"Tenore	*	*I"Alto	*	*I"Canto	*
*I'B	*	*I'V	*	*I'T	*	*I'A	*	*I'C	*
*oclefF4	*	*oclefC4	*	*oclefC4	*	*oclefC3	*	*oclefC1	*
*clefF4	*	*clefGv2	*	*clefGv2	*	*clefGv2	*	*clefG2	*
*k[b-]	*	*k[b-]	*	*k[b-]	*	*k[b-]	*	*k[b-]	*
*F:	*	*F:	*	*F:	*	*F:	*	*F:	*
*omet(C)	*	*omet(C)	*	*omet(C)	*	*omet(C)	*	*omet(C)	*
*M4/2	*	*M4/2	*	*M4/2	*	*M4/2	*	*M4/2	*
=1	=1	=1	=1	=1	=1	=1	=1	=1	=1
!!LO:TX:a:t=Seconda parte.
1r	.	1r	.	2r	.	0r	.	2f	Sai
.	.	.	.	2F	Sai	.	.	8a	che
.	.	.	.	.	.	.	.	8g	là
.	.	.	.	.	.	.	.	8a	cor-
.	.	.	.	.	.	.	.	8b-y	-re il
2r	.	2F	Sai	8A	che	.	.	2cc	mon-
.	.	.	.	8G	là	.	.	.	.
.	.	.	.	8A	cor-	.	.	.	.
.	.	.	.	8B-y	-re il	.	.	.	.
2FF	Sai	8A	che	2c	mon-	.	.	2f	-do,
.	.	8G	là	.	.	.	.	.	.
.	.	8A	cor-	.	.	.	.	.	.
.	.	8B-y	-re il	.	.	.	.	.	.
=2	=2	=2	=2	=2	=2	=2	=2	=2	=2
8AA	che	2c	mon-	2F	-do,	2c	Sai	4r	.
8GG	là	.	.	.	.	.	.	.	.
8AA	cor-	.	.	.	.	.	.	4cc	o-
8BB-y	-re il	.	.	.	.	.	.	.	.
2C	mon-	4c	-do,	4r	.	8e	che	4cc	-ve
.	.	.	.	.	.	8d	là	.	.
.	.	4G	<Sai	4c	<Sai	8e	cor-	4g	più
.	.	.	.	.	.	8f	-re il	.	.
2GG	-do,	8d	che	8B-y	che	4g	mon-	8b-yL	ver-
.	.	8c	là	8A	là	.	.	8cc	.
.	.	8B-y	cor-	8B-y	cor-	8fL	.	8dd	.
.	.	8A	-re il	8c	-re il	8eJ	.	8ccJ	.
4r	.	[2G	mon-	4.d	mon-	2d	.	8b-yL	.
.	.	.	.	.	.	.	.	8cc	.
4G	o-	.	.	.	.	.	.	8b-y	.
.	.	.	.	16cL	.	.	.	8aJ	.
.	.	.	.	16BnXiJ	.	.	.	.	.
=3	=3	=3	=3	=3	=3	=3	=3	=3	=3
4C	-ve	2G]	.	2c	.	2e	-do,	2g	.
4C	più	.	.	.	.	.	.	.	.
8FL	ver-	2A	-do,>	1c	-do,>	2r	.	4.f	-si,
8G	.	.	.	.	.	.	.	.	.
8A	.	.	.	.	.	.	.	.	.
8GJ	.	.	.	.	.	.	.	8g	.
8FL	.	4r	.	.	.	2r	.	1a	.
8G	.	.	.	.	.	.	.	.	.
8F	.	4F	<Sai	.	.	.	.	.	.
8EJ	.	.	.	.	.	.	.	.	.
2D	.	8A	che	4r	.	2f	<Sai	.	.
.	.	8G	là	.	.	.	.	.	.
.	.	8A	cor-	4d	o-	.	.	.	.
.	.	8B-y	-re il	.	.	.	.	.	.
=4	=4	=4	=4	=4	=4	=4	=4	=4	=4
2C	-si,	2c	mon-	4G	-ve	8e	che	1r	.
.	.	.	.	.	.	8d	là	.	.
.	.	.	.	4G	più	8e	cor-	.	.
.	.	.	.	.	.	8f	-re il	.	.
2r	.	1G	-do,>	8B-yL	ver-	2g	mon-	.	.
.	.	.	.	8c	.	.	.	.	.
.	.	.	.	8d	.	.	.	.	.
.	.	.	.	8cJ	.	.	.	.	.
2GG	Sai	.	.	8B-yL	.	2d	-do,> o-	4r	.
.	.	.	.	8c	.	.	.	.	.
.	.	.	.	8B-y	.	.	.	4a	o-
.	.	.	.	8AJ	.	.	.	.	.
8BB-y	che	2r	.	2G	.	4B-y	-ve	4d	-ve
8AA	là	.	.	.	.	.	.	.	.
8BB-y	cor-	.	.	.	.	4d	più	4d	più
8C	-re il	.	.	.	.	.	.	.	.
=5	=5	=5	=5	=5	=5	=5	=5	=5	=5
1D	mon-	4r	.	1F	-si,	8dL	ver-	8fL	ver-
.	.	.	.	.	.	8e	.	8g	.
.	.	4D	<Sai	.	.	8f	.	8a	.
.	.	.	.	.	.	8eJ	.	8gJ	.
.	.	8F	che	.	.	8dL	.	8fL	.
.	.	8E	là	.	.	8e	.	8g	.
.	.	8F	cor-	.	.	8d	.	8f	.
.	.	8F	-re il	.	.	8cJ	.	8eJ	.
1GG	-do,	2G	mon-	2r	.	4BnX	.	4d	.
.	.	.	.	.	.	2c	.	4c	.
.	.	2G	-do,> o-	2D	Sai	.	.	2d	.
.	.	.	.	.	.	4BnX	.	.	.
=6	=6	=6	=6	=6	=6	=6	=6	=6	=6
1r	.	4C	-ve	8G	che	2c	-si,	2e	-si,
.	.	.	.	8F	là	.	.	.	.
.	.	4C	più	8G	cor-	.	.	.	.
.	.	.	.	8G	-re il	.	.	.	.
.	.	8FL	ver-	1A	mon-	4r	.	2r	.
.	.	8G	.	.	.	.	.	.	.
.	.	8A	.	.	.	4c	Sai	.	.
.	.	8GJ	.	.	.	.	.	.	.
4r	.	8FL	.	.	.	8f	che	1r	.
.	.	8G	.	.	.	8e	là	.	.
4D	o-	8F	.	.	.	8f	cor-	.	.
.	.	8EJ	.	.	.	8f	-re il	.	.
4GG	-ve	2D	.	2B-y	-do,	2g	mon-	.	.
4GG	più	.	.	.	.	.	.	.	.
=7	=7	=7	=7	=7	=7	=7	=7	=7	=7
8BB-yL	ver-	2D	-si	4r	.	2f	-do,	4r	.
8C	.	.	.	.	.	.	.	.	.
8D	.	.	.	4A	o-	.	.	4.dd	<o-
8CJ	.	.	.	.	.	.	.	.	.
8BB-yL	.	2r	.	4D	-ve	4r	.	.	.
8C	.	.	.	.	.	.	.	8g	-ve
8BB-y	.	.	.	4D	più	4B-y	o-	4g	più
8AAJ	.	.	.	.	.	.	.	.	.
[1GG	.	1r	.	8GL	ver-	4d	-ve	8b-yL	ver-
.	.	.	.	8A	.	.	.	8cc	.
.	.	.	.	8B-y	.	4d	più	8dd	.
.	.	.	.	8AJ	.	.	.	8ccJ	.
.	.	.	.	8GL	.	4d	ver-	8b-yL	.
.	.	.	.	8A	.	.	.	8cc	.
.	.	.	.	8G	.	8GL	.	8b-y	.
.	.	.	.	8FJ	.	8AJ	.	8aJ	.
=8	=8	=8	=8	=8	=8	=8	=8	=8	=8
1GG]	.	1r	.	4E	.	8B-yL	.	4.g	.
.	.	.	.	.	.	8c	.	.	.
.	.	.	.	2F	.	8B-y	.	.	.
.	.	.	.	.	.	8AJ	.	8a	.
.	.	.	.	.	.	2G	.	2b-y	.
.	.	.	.	4E	.	.	.	.	.
2FF	-si	2r	.	2.F	-si	2.c	-si	2.a	-si>
2F	Di	2A	Di	.	.	.	.	.	.
.	.	.	.	4c	Di	4f	Di	4a	Di
=9	=9	=9	=9	=9	=9	=9	=9	=9	=9
2F	sue	2A	sue	2c	sue	2f	sue	2a	sue
2D	dol-	2F	dol-	4r	.	2f	dol-	2bnX	dol-
.	.	.	.	4F	dol-	.	.	.	.
1C	-cez-	1A	-cez-	1c	-cez-	2f	-cez-	1cc	-cez-
.	.	.	.	.	.	4e	.	.	.
.	.	.	.	.	.	4d	.	.	.
=10	=10	=10	=10	=10	=10	=10	=10	=10	=10
2C	-ze	2G	-ze	2c	-ze il	4e	.	4c	-ze il
.	.	.	.	.	.	4e	-ze il	4.cc	lu-
2r	.	2r	.	4.f	lu-	4.a	lu-	.	.
.	.	.	.	.	.	.	.	8b-i	-sin-
.	.	.	.	.	.	.	.	2a	-ghier
.	.	.	.	8e	-sin-	8g	-sin-	.	.
1r	.	2r	.	4d	-ghier	4f#X	-ghier	.	.
.	.	.	.	4G	Par-	2g	Par-	4b-y	Par-
.	.	4r	.	2d	-na-	.	.	2a	-na-
.	.	4D	il	.	.	4f#X	-na-	.	.
=11	=11	=11	=11	=11	=11	=11	=11	=11	=11
4r	.	4.G	lu-	2d	-so,	4g	-so,	2g	-so,
4GG	il	.	.	.	.	4d	il	.	.
.	.	8F	-sin-	.	.	.	.	.	.
4.C	lu-	4E	-ghier,	4G	il	4.e	lu-	4r	.
.	.	2E	<il	4.c	lu-	.	.	4g	il
8BB-y	-sin-	.	.	.	.	8d	-sin-	.	.
2.AA	-ghier	.	.	.	.	2c	-ghier	4.cc	lu-
.	.	.	.	8B-y	-sin-	.	.	.	.
.	.	4.A	lu-	2A	-ghier	.	.	.	.
.	.	.	.	.	.	.	.	8b-y	-sin-
.	.	.	.	.	.	2d	Par-	4a	-ghier
.	.	8G	-sin-	.	.	.	.	.	.
4D	Par-	8F	-ghier>	4A	Par-	.	.	[4dd	Par-
.	.	8F	Par-	.	.	.	.	.	.
=12	=12	=12	=12	=12	=12	=12	=12	=12	=12
2AA	-na-	2E	-na-	2A	-na-	2e	-na-	4dd]	.
.	.	.	.	.	.	.	.	4cc#X	-na-
2D	-so;	2F#X	-so;	2A	-so;	2d	-so;	2dd	-so;
1r	.	1r	.	2r	.	2r	.	2r	.
.	.	.	.	2d	E	2f#X	E	2a	E
=13	=13	=13	=13	=13	=13	=13	=13	=13	=13
0r	.	0r	.	4d	che'l	4f#X	che'l	4a	che'l
.	.	.	.	4.d	ve-	4.f#X	ve-	4.a	ve-
.	.	.	.	8d	-ro	8f#X	-ro	8a	-ro
.	.	.	.	4B-y	con-	4g	con-	4b-y	con-
.	.	.	.	2.c	-di-	2.e	-di-	2.g	-di-
.	.	.	.	4A	-to in	4fnXi	-to in	4a	-to in
=14	=14	=14	=14	=14	=14	=14	=14	=14	=14
2r	.	1r	.	4B-y	mol-	4d	mol-	8g	mol-
.	.	.	.	.	.	.	.	8f	-li
.	.	.	.	4A	-li	4c	-li	2f	ver-
4r	.	.	.	2G	ver-	4B-y	ver-	.	.
8C	I	.	.	.	.	4c	.	4e	.
8C	più	.	.	.	.	.	.	.	.
4D	schi-	4r	.	2F	-si,	2A	-si,	2f	-si,
8D	-vi al-	8F	I	.	.	.	.	.	.
8D	-let-	8F	più	.	.	.	.	.	.
4E	-tan-	4G	schi-	2r	.	4r	.	2r	.
4E	-d'ha	8G	-vi al-	.	.	8c	I	.	.
.	.	8G	-let-	.	.	8c	più	.	.
=15	=15	=15	=15	=15	=15	=15	=15	=15	=15
4F	per-	4A	-tan-	1r	.	4d	schi-	4r	.
4D	-su-	4A	-d'ha	.	.	8d	-vi al-	8f	I
.	.	.	.	.	.	8d	-let-	8f	più
2C	-a-	2.c	per-	.	.	2e	-tan-	4g	schi-
.	.	.	.	.	.	.	.	8g	-vi al-
.	.	.	.	.	.	.	.	8g	-let-
2FF	-so,	.	.	4r	.	8f	-d'ha	4a	-tan-
.	.	.	.	.	.	8g	per-	.	.
.	.	4A	-su-	8F	I	2a	-su-	2cc	-d'ha
.	.	.	.	8F	più	.	.	.	.
2r	.	2d	-a-	4G	schi-	.	.	.	.
.	.	.	.	8G	-vi al-	[4g	-a-	[4b-y	per-
.	.	.	.	8G	-let-	.	.	.	.
=16	=16	=16	=16	=16	=16	=16	=16	=16	=16
1r	.	2c	-so,	4A	-tan-	4g]	.	4b-]	.
.	.	.	.	4A	-d'ha	4f	.	4a	-su-
.	.	2r	.	4B-y	per-	2d	.	8gL	-a-
.	.	.	.	.	.	.	.	8fJ	.
.	.	.	.	4B-y	-su-	.	.	2f	.
4r	.	2r	.	2c	-a-	2g	-so,	.	.
8C	I	.	.	.	.	.	.	4e	.
8C	più	.	.	.	.	.	.	.	.
4D	schi-	4r	.	2A	-so,	2r	.	2f	-so,
8D	-vi al-	8F	I	.	.	.	.	.	.
8D	-let-	8F	più	.	.	.	.	.	.
=17	=17	=17	=17	=17	=17	=17	=17	=17	=17
4E	-tan-	4G	schi-	4r	.	1r	.	4r	.
2F	-d'ha	8A	-vi al-	4A	ha	.	.	8f	I
.	.	8A	-let-	.	.	.	.	8f	più
.	.	4B-y	-tan-	2G	per-	.	.	4g	schi-
2E	per-	2c	-d'ha	.	.	.	.	8g	-vi al-
.	.	.	.	.	.	.	.	8g	-let-
.	.	.	.	2F	-su-	4r	.	4a	-tan-
2D	-su-	2d	per-	.	.	8f	<I	4a	-d'ha
.	.	.	.	.	.	8f	più	.	.
.	.	.	.	2E	-a-	4g	schi-	4bnX	per-
[4C	-a-	4e	-su-	.	.	8g	-vi al-	4cc	-su-
.	.	.	.	.	.	8g	-let-	.	.
=18	=18	=18	=18	=18	=18	=18	=18	=18	=18
4C]	.	2f	-a-	2D	-so,	4a	-tan-	2dd	-a-
4BBnX	.	.	.	.	.	2d	-d'ha	.	.
2C	-so,	4e	-so,	4r	.	.	.	2g	-so,
.	.	8E	I	8C	I	2c	per-	.	.
.	.	8E	più	8C	più	.	.	.	.
2r	.	4F	schi-	4D	schi-	.	.	2r	.
.	.	8F	-vi al-	8D	-vi al-	2B-y	-su-	.	.
.	.	8F	-let-	8D	-let-	.	.	.	.
4r	.	4G	-tan-	4E	-tan-	.	.	[2cc	ha
8FF	<I	4F	-do	4C	-do	4A	-a-	.	.
8FF	più	.	.	.	.	.	.	.	.
=19	=19	=19	=19	=19	=19	=19	=19	=19	=19
4GG	schi-	2r	.	4r	.	2G	.	4cc]	.
8GG	-vi al-	.	.	2G	ha	.	.	2b-y	per-
8GG	-let-	.	.	.	.	.	.	.	.
4AA	-tan-	4r	.	.	.	2c	-so,>	.	.
4AA	-d'ha	2c	ha	2F	per-	.	.	2a	-su-
4BB-i	per-	.	.	.	.	4r	.	.	.
4BB-y	-su-	2B-y	per-	4D	-su-	4d	ha	2g	-a-
[2C	-a-	.	.	4E	-a-	4c	per-	.	.
.	.	4A	-su-	4C	-so:	4F	-su-	[4f	.
=20	=20	=20	=20	=20	=20	=20	=20	=20	=20
2C]	.	2G	-a-	2r	.	2c	-a-	4f]	.
.	.	.	.	.	.	.	.	4e	.
2FF	-so:>	2F	-so:	2c	Co-	2c	-so:	2f	-so:
2r	.	2r	.	2A	-sì a	2r	.	2r	.
2F	Co-	2c	Co-	[2A	l'e-	2f	Co-	2a	Co-
=21	=21	=21	=21	=21	=21	=21	=21	=21	=21
2D	-sì a	2d	-sì a	4A]	.	2f#X	-sì a	2a	-sì a
.	.	.	.	4A	-gro	.	.	.	.
2.D	l'e-	2.d	l'e-	2d	fan-	2.f#X	l'e-	2.a	l'e-
.	.	.	.	2A	-ciul	.	.	.	.
4D	-gro	4d	-gro	.	.	4f#X	-gro	4a	-gro
2G	fan-	2d	fan-	4r	.	2g	fan-	2b-y	fan-
.	.	.	.	4G	por-	.	.	.	.
=22	=22	=22	=22	=22	=22	=22	=22	=22	=22
2D	-ciul	2d	-ciul	2F#X	-gia-	2a	-ciul	2a	-ciul
2r	.	2r	.	2G	-mo a-	4r	.	4r	.
.	.	.	.	.	.	4d	por-	4g	por-
1r	.	2r	.	2A	-sper-	2c#X	-gia-	2e	-gia-
.	.	2D	por-	4D	-si,	2d	-mo a-	2f	-mo a-
.	.	.	.	4A	<por-	.	.	.	.
=23	=23	=23	=23	=23	=23	=23	=23	=23	=23
2r	.	2C#X	-gia-	2E	-gia-	2e	-sper-	2a	-sper-
4r	.	2D	-mo a-	2FnXi	-mo a-	2d	-si,	4f	-si,
4D	por-	.	.	.	.	.	.	4d	a-
2AA	-gia-	2E	-sper-	2A	-sper-	2r	.	2c#X	-sper-
2BB-y	-mo a-	4D	-si,	2F	-si,>	4r	.	2d	-si,
.	.	4D	<por-	.	.	4f	<por-	.	.
=24	=24	=24	=24	=24	=24	=24	=24	=24	=24
1AA	-sper-	2E	-gia-	2r	.	2c#X	-gia-	2r	.
.	.	2F	-mo a-	2f	por-	2d	-mo a-	2a	por-
1AA	-si	1A	-sper-	2c#X	-gia-	2e	-sper-	2e	-gia-
.	.	.	.	2d	-mo a-	2A	-si>	2f	-mo a-
=25	=25	=25	=25	=25	=25	=25	=25	=25	=25
1r	.	2A	-si>	2d	-sper-	0r	.	1e	-sper-
.	.	1A	Di	2c#X	.	.	.	.	.
[1D	Di	.	.	1d	-si	.	.	1f	-si
.	.	2B-y	so-	.	.	.	.	.	.
=26	=26	=26	=26	=26	=26	=26	=26	=26	=26
2D]	.	2F#X	-a-	1.d	Di	1r	.	1r	.
2BB-y	so-	4G	-vi	.	.	.	.	.	.
.	.	4G	li-	.	.	.	.	.	.
2FF#X	-a-	2A	-cor	.	.	2r	.	[1dd	Di
4GG	-vi	8GL	gli or-	2B-y	so-	4r	.	.	.
.	.	8A	.	.	.	.	.	.	.
4GG	li-	8B-y	.	.	.	[4d	Di	.	.
.	.	8GJ	.	.	.	.	.	.	.
=27	=27	=27	=27	=27	=27	=27	=27	=27	=27
1.D	-cor	4A	.	2F#X	-a-	4d]	.	2dd]	.
.	.	8A	-li	.	.	4A	so-	.	.
.	.	8A	del	.	.	.	.	.	.
.	.	1d	va-	4G	-vi	2B-y	-a-	2b-y	so-
.	.	.	.	4G	li-	.	.	.	.
.	.	.	.	2A	-cor	2A	-vi	2f#X	-a-
2r	.	2B-y	-so,	8GL	gli or-	2d	li-	4g	-vi
.	.	.	.	8A	.	.	.	.	.
.	.	.	.	8B-y	.	.	.	4g	li-
.	.	.	.	8GJ	.	.	.	.	.
=28	=28	=28	=28	=28	=28	=28	=28	=28	=28
8FL	gli or-	2r	.	4c	.	2A	-cor	2a	-cor
8G	.	.	.	.	.	.	.	.	.
8A	.	.	.	8c	-li	.	.	.	.
8FJ	.	.	.	8c	del	.	.	.	.
4G	.	8B-yL	gli or-	2B-y	va-	2r	.	2r	.
.	.	8c	.	.	.	.	.	.	.
8G	-li	8d	.	.	.	.	.	.	.
8G	del	8B-yJ	.	.	.	.	.	.	.
2A	va-	4c	.	2A	-so;	8fL	gli or-	2r	.
.	.	.	.	.	.	8g	.	.	.
.	.	8c	-li	.	.	8a	.	.	.
.	.	8c	del	.	.	8fJ	.	.	.
2G	-so;	4d	va-	2r	.	2g	.	8b-yL	gli or-
.	.	.	.	.	.	.	.	8cc	.
.	.	4B-y	-so;	.	.	.	.	8dd	.
.	.	.	.	.	.	.	.	8b-yJ	.
=29	=29	=29	=29	=29	=29	=29	=29	=29	=29
1r	.	0r	.	1r	.	8e	-li	4cc	.
.	.	.	.	.	.	8c	del	.	.
.	.	.	.	.	.	2f	va-	8a	-li
.	.	.	.	.	.	.	.	8f	del
.	.	.	.	.	.	.	.	2g	va-
.	.	.	.	.	.	4e	.	.	.
2r	.	.	.	2r	.	1f	-so;	1f	-so;
[2F	Suc-	.	.	[2A	Suc-	.	.	.	.
=30	=30	=30	=30	=30	=30	=30	=30	=30	=30
2F]	.	0r	.	2A]	.	1.a	Suc-	1.cc	Suc-
2E	-chi a-	.	.	2G	-chi a-	.	.	.	.
1D	-ma-	.	.	2F#X	-ma-	.	.	.	.
.	.	.	.	4G	-ri in-	[2g	-chi a-	2b-y	-chi a-
.	.	.	.	4G	-gan-	.	.	.	.
=31	=31	=31	=31	=31	=31	=31	=31	=31	=31
2AA	-ri in-	1.c	Suc-	4A	-na-	2g]	.	1a	-ma-
.	.	.	.	4E	-to,	.	.	.	.
2BB-y	-gan-	.	.	2r	.	1f	-ma-	.	.
1C	-na-	.	.	[1c	<Suc-	.	.	2a	-ri in-
.	.	2B-y	-chi a-	.	.	4e	.	2b-y	-gan-
.	.	.	.	.	.	4d	.	.	.
=32	=32	=32	=32	=32	=32	=32	=32	=32	=32
0C	-to	1A	-ma-	2c]	.	1.e	.	1cc	-na-
.	.	.	.	2B-y	-chi a-	.	.	.	.
.	.	2E	-ri in-	1A	-ma-	.	.	1cc	-to
.	.	2F	-gan-	.	.	4c	-ri in-	.	.
.	.	.	.	.	.	4c	-gan-	.	.
=33	=33	=33	=33	=33	=33	=33	=33	=33	=33
0r	.	4G	-na-	2E	-ri in-	2g	-na-	1r	.
.	.	4c	-to in	.	.	.	.	.	.
.	.	4c	tan-	2F	-gan-	2c	-to	.	.
.	.	4A	-to ei	.	.	.	.	.	.
.	.	4B-y	be-	1G	-na-	1r	.	4r	.
.	.	4A	.	.	.	.	.	4g	in
.	.	4B-y	.	.	.	.	.	4g	tan-
.	.	4c	.	.	.	.	.	4e	-to ei
=34	=34	=34	=34	=34	=34	=34	=34	=34	=34
0r	.	4d	.	0F	-to>	1r	.	4f	be-
.	.	4c	.	.	.	.	.	4e	.
.	.	4d	.	.	.	.	.	4f	.
.	.	4e	.	.	.	.	.	4g	.
.	.	1f	.	.	.	2r	.	4a	.
.	.	.	.	.	.	.	.	4g	.
.	.	.	.	.	.	4r	.	4a	.
.	.	.	.	.	.	4f	E	4b-y	.
=35	=35	=35	=35	=35	=35	=35	=35	=35	=35
1r	.	1c	-ve,	4r	.	8e	da	1cc	.
.	.	.	.	.	.	8d	l'in-	.	.
.	.	.	.	4E	E	8c	-gan-	.	.
.	.	.	.	.	.	8B-y	-no	.	.
.	.	.	.	8F	da	4A	suo	.	.
.	.	.	.	8G	l'in-	.	.	.	.
.	.	.	.	8A	-gan-	4f	vi-	.	.
.	.	.	.	8B-y	-no	.	.	.	.
4r	.	1r	.	4c	suo	4e	-ta	4g	-ve,
4AA	E	.	.	4c	vi-	4e	ri-	4c	E
8BB-y	da	.	.	4B-y	-ta	2d	-ce-	8d	da
8C	l'in-	.	.	.	.	.	.	8e	l'in-
8D	-gan-	.	.	4B-y	ri-	.	.	8f	-gan-
8E	-no	.	.	.	.	.	.	8g	-no
=36	=36	=36	=36	=36	=36	=36	=36	=36	=36
4F	suo	4r	.	2A	-ce-	4c	-ve,	4a	suo,
4F	vi-	4A	vi-	.	.	4a	E	4cc	E
4G	-ta	4A	-ta	2d	-ve,	8g	da	8b-y	da
.	.	.	.	.	.	8f	l'in-	8a	l'in-
4G	ri-	4B-y	ri-	.	.	8e	-gan-	8g	-gan-
.	.	.	.	.	.	8d	-no	8f	-no
2A	-ce-	4c	-ce-	4r	.	4c	suo	4e	suo
.	.	4A	-ve,	4F	<E	4f	vi-	4cc	vi-
2G	-ve,	2r	.	8G	da	4d	-ta	4b-y	-ta
.	.	.	.	8A	l'in-	.	.	.	.
.	.	.	.	8B-y	-gan-	[4g	ri-	4b-y	ri-
.	.	.	.	8c	-no	.	.	.	.
=37	=37	=37	=37	=37	=37	=37	=37	=37	=37
4r	.	4r	.	4d	suo	4g]	.	2a	-ce-
4AA	E	4C	E	4c	vi-	4f#X	-ce-	.	.
8BB-y	da	8D	da	4B-y	-ta	4g	-ve,	4g	-ve,>
8C	l'in-	8E	l'in-	.	.	.	.	.	.
8D	-gan-	8F	-gan-	4B-y	ri-	4d	vi-	4r	.
8E	-no	8G	-no	.	.	.	.	.	.
4F	suo,	4A	suo	4A	-ce-	4c	-ta	2r	.
4EE	<E	4c	vi-	4G	-ve,	4g	ri-	.	.
8FF	da	2A	-ta,	4r	.	4fnXi	-ce-	4dd	E
8GG	l'in-	.	.	.	.	.	.	.	.
8AA	-gan-	.	.	8r	.	8f	-ve,	8cc	da
8BB-y	-no	.	.	8d	E	8f	E	8b-y	l'in-
=38	=38	=38	=38	=38	=38	=38	=38	=38	=38
4C	suo>	4r	.	8c	da	8e	da	8a	-gan-
.	.	.	.	8B-y	l'in-	8d	l'in-	8g	-no
4C	vi-	4E	vi-	8A	-gan-	8c	-gan-	4cc	suo
.	.	.	.	8G	-no	8B-y	-no	.	.
4D	-ta	4F	-ta	2F	suo,	4A	suo	4r	.
4D	ri-	4F	ri-	.	.	4d	vi-	4f	vi-
4.E	-ce-	4G	-ce-	4r	.	4c	-ta	4e	-ta
.	.	4G	-ve,	4c	<E	2c	ri-	4e	ri-
8F	.	.	.	.	.	.	.	.	.
2G	.	2r	.	8B-y	da	.	.	2d	-ce-
.	.	.	.	8A	l'in-	.	.	.	.
.	.	.	.	8G	-gan-	4BnX	-ce-	.	.
.	.	.	.	8F	-no	.	.	.	.
=39	=39	=39	=39	=39	=39	=39	=39	=39	=39
2C	-ve,	4r	.	4E	suo>	2c	-ve,	2e	-ve,
.	.	4C	vi-	4c	vi-	.	.	.	.
2r	.	4D	-ta	4B-y	-ta	4r	.	2r	.
.	.	4E	ri-	4B-y	ri-	4g	vi-	.	.
4r	.	4F	-ce-	2A	-ce-	4f	-ta	4r	.
4AA	vi-	4C	-ve,	.	.	4e	ri-	4cc	vi-
4BB-y	-ta	2r	.	4.F	-ve,	2d	-ce-	4b-y	-ta
4BB-y	ri-	.	.	.	.	.	.	4a	ri-
.	.	.	.	8D	vi-	.	.	.	.
=40	=40	=40	=40	=40	=40	=40	=40	=40	=40
1C	-ce-	8r	.	4E	-ta	8G	-ve,	8gL	-ce-
.	.	8c	vi-	.	.	8G	<vi-	8aJ	.
.	.	8B-y	-ta	4F	ri-	8A	-ta	2f	.
.	.	8A	ri-	.	.	8B-y	ri-	.	.
.	.	2G	-ce-	2G	-ce-	2c	-ce-	.	.
.	.	.	.	.	.	.	.	4e	.
1FFl	-ve.	1Fl	-ve.	1Al	-ve.	1cl	-ve.>	1fl	-ve.
==	==	==	==	==	==	==	==	==	==
*-	*-	*-	*-	*-	*-	*-	*-	*-	*-
!!!system-decoration: [*]
!!!RDF**kern: i = editorial accidental
!!!RDF**kern: l = terminal long
!!!ENC: Emiliano Ricciardi
!!!END: 2019/08
!!!EED: Ricciardi, Emiliano
!!!EEV: 2019/08/23
!!!YEC: Copyright 2019 Emiliano Ricciardi, All Rights Reserved
!!!ONB: Translated from MusicXML on 2019/08/23 and edited by Craig Stuart Sapp
!!@@BEGIN:	VERSEDATA
!!@CATALOGNUM:	Tsg01003
!!@LAST_MODIFIED: 2020/07/12
!!@TITLE:		Sai che là corre il mondo, ove più versi
!!@CANTO:         I
!!@OTTAVA:	3
!!@MANUSRC:	G-Al, G-Au, G-Bm, G-Br<sub>1</sub>, G-Br<sub>2</sub>, G-Cv, G-Es<sub>1</sub>, G-Es<sub>2</sub>, G-Es<sub>3</sub>, G-F, G-Fr, G-Fr<sub>1</sub>, G-Fr<sub>2</sub>, G-Mc, G-Mc<sub>1</sub>, G-Mg, G-Mr, G-Mt, G-N, G-Ol
!!@PRINTSRC:	G-1580CM, G-1581B, G-1581CV, G-1581R, G-1581MR, G-1581P, G-1581V, G-1581V<sub>bis</sub>, G-1582C, G-1582M, G-1582MC, G-1582P, G-1582SC, G-1582SC<sub>bis</sub>, G-1583S, G-1584O, G-1584S, G-1585C, G-1585S, G-1588S, G-1589S, G-1590B, G-1590S, G-1592S, G-1593S, G-1594C, G-1595C, G-1597C, G-1598C, G-1599C, G-1600C, G-1600S, G-1601C, G-1601R, G-1602C, G-1604C, G-1604Cl, G-1604F, G-1604P, G-1606B, G-1606B<sub>bis</sub>, G-1606L, G-1607ZR, G-1608DP, G-1609GC, G-1610M, G-1611S, G-1611V, G-1612P, G-1613M, G-1613P, G-1613V, G-1615P, G-1616M, G-1617P, G-1619B, G-1619V, G-1620M, G-1620S, G-1621R, G-1624I, G-1624MT, G-1625C, G-1625S, G-1625SS, G-1626C, G-1626Co, G-1627M, G-1628T, G-1628Tu, G-1630L, G-1630T, G-1632FT, G-1639CF, G-1642M, G-1643I, G-1644P, G-1644S
!!@@BEGIN:	VERSES
!!@ABOUTIT:
!!@ABOUTEN:
!!@EDITOR:	Angelo Solerti
!!@EDITION_TITLE: Gerusalemme liberata. Poema eroico di Torquato Tasso. Edizione critica sui manoscritti e le prime stampe.
!!@EDITION_LOC:	Florence
!!@EDITION_PUB:	G. Barbèra
!!@EDITION_DATE:  1895
!!@EDITION_VOL:	2
!!@EDITION_PAGE:  36
!!@TRANSLATOR:	Emiliano Ricciardi and Amyrose McCue Gill
!!@VERSE:
!!	Sai che là corre il mondo, ove più versi
!!	Di sue dolcezze il lusinghier Parnaso;
!!	E che ’l vero condito in molli versi,
!!	I più schivi allettando ha persuaso:
!!	Così a l’egro fanciul porgiamo aspersi
!!	Di soavi licor gli orli del vaso;
!!	Succhi amari ingannato intanto ei beve,
!!	E dall’inganno suo vita riceve.
!!@MVERSE_DATE: 20230824
!!@MVERSE:
!!	Sai che là cor||re_il mon||do,_o||ve più ver||si	=a++
!!	Di sue dol|cez||ze_il lu|sin||ghier Par|na||so;		=b
!!	E che_’l ve|ro con|di||to_in mol||li ver||si,		=a+
!!	I più schi||vi_al|let|tan||do ha per|sua||so:		=b
!!	Co|sì_a_l’e||gro fan|ciul|| por|gia||mo_as|per||si	=a
!!	Di soa||vi li|cor|| gli or||li del va||so;		=b
!!	Suc||chi_am|ar||i_in|gan|na||to_in|tan||to_ei be||ve,	=c
!!	E dall’in|gan||no suo vi||ta rice||ve.			=c
!!
!!@TVERSE:
!!	You know that the world rushes there, where pours more
!!	Of his sweetnesses the flatterer Parnassus;
!!	And that truth spiced with gentle verses,
!!	Enticing the most timid folk, has persuaded:
!!	Thus for a sickly youth we place drops
!!	Of sweet liquor upon the rim of the vessel;
!!	Bitter juices, tricked for the moment, he drinks,
!!	And from the trick receives his life.
!!@@END:		VERSES
!!@OTHER_CRIT_ED:  Torquato Tasso, <i>Gerusalemme liberata</i>, ed. Lanfranco Caretti, 2 vols. (Bari: Laterza, 1967).
!!@ATTRIBUTION_ABOUT:
!!@DATING:	mid-1560s through 1570s
!!@DEDICATEE:	Duke Alfonso II d'Este
!!@COMMENTARY:
!!@@END:		VERSEDATA
!!@@BEGIN: SETTING
!!@CATALOGNUM:	Tsg01003a
!!@CANTO:		I
!!@OTTAVA:	3
!!@TITLE:	Sai che là corre il mondo ove più versi
!!@COMPOSER:	Priuli, Giovanni
!!@PARTS:		2 of 2
!!@PRINCEPSTITLE:	Il primo libro de madrigali a cinque voci 
!!@PRINCEPSLOC:	Venice
!!@NORMLOC:	Venice
!!@NORMPUB:	Angelo Gardano
!!@NORMPUBSHORT:	Gardano
!!@PRINCEPSPUB:	Angelo Gardano
!!@PRINCEPSYEAR:	1604
!!@PRINCEPSRISM:	P 5480
!!@OVOICES:	5
!!@EXTANTVOICES:	5
!!@OMENSURATION:	C
!!@OCLEFS:	C1,C3,C4,C4,F4
!!@OTIME:		
!!@OKEYSIG:	b-
!!@FINAL:		F
!!@TIMPEDITOR:	Ricciardi, Emiliano
!!@REPRINTS:	
!!@@END: SETTING
